svg/fluentui-system-icons/ic_fluent_lock_closed_16_filled.svg

<svg width="16" height="16" viewBox="0 0 16 16" fill="none" xmlns="http://www.w3.org/2000/svg">
<path d="M7.83248 1.75502L8 1.75C9.46253 1.75 10.6584 2.8917 10.745 4.33248L10.75 4.5V5H11.5C12.3284 5 13 5.67157 13 6.5V12.5C13 13.3284 12.3284 14 11.5 14H4.5C3.67157 14 3 13.3284 3 12.5V6.5C3 5.67157 3.67157 5 4.5 5H5.25V4.5C5.25 3.03747 6.3917 1.8416 7.83248 1.75502L8 1.75L7.83248 1.75502ZM8 8.5C7.44772 8.5 7 8.94772 7 9.5C7 10.0523 7.44772 10.5 8 10.5C8.55228 10.5 9 10.0523 9 9.5C9 8.94772 8.55228 8.5 8 8.5ZM8.12781 3.25645L8 3.25C7.35279 3.25 6.82047 3.74187 6.75645 4.37219L6.75 4.5V5H9.25V4.5C9.25 3.85279 8.75813 3.32047 8.12781 3.25645L8 3.25L8.12781 3.25645Z" fill="#212121"/>
</svg>

<svg xmlns="http://www.w3.org/2000/svg" width="16" height="16"><path d="M7.832 1.755 8 1.75a2.75 2.75 0 0 1 2.745 2.582l.005.168V5h.75A1.5 1.5 0 0 1 13 6.5v6a1.5 1.5 0 0 1-1.5 1.5h-7A1.5 1.5 0 0 1 3 12.5v-6A1.5 1.5 0 0 1 4.5 5h.75v-.5a2.75 2.75 0 0 1 2.582-2.745L8 1.75l-.168.005ZM8 8.5a1 1 0 1 0 0 2 1 1 0 0 0 0-2Zm.128-5.244L8 3.25a1.25 1.25 0 0 0-1.244 1.122L6.75 4.5V5h2.5v-.5a1.25 1.25 0 0 0-1.122-1.244L8 3.25l.128.006Z"/></svg>
